images/icons/results.svg

<?xml version="1.0" encoding="UTF-8"?>
<svg width="94px" height="96px" viewBox="0 0 94 96" version="1.1" xmlns="http://www.w3.org/2000/svg" xmlns:xlink="http://www.w3.org/1999/xlink">
    <!-- Generator: Sketch 50.2 (55047) - http://www.bohemiancoding.com/sketch -->
    <title>ResultsIcon Copy</title>
    <desc>Created with Sketch.</desc>
    <defs></defs>
    <g id="Page-1" stroke="none" stroke-width="1" fill="none" fill-rule="evenodd">
        <g id="Landing-Page-Copy-2" transform="translate(-999.000000, -1036.000000)" fill="#2A1B41">
            <g id="ResultsIcon-Copy" transform="translate(999.000000, 1036.000000)">
                <path d="M93.4835423,17.6409962 C76.7839,0.527456604 76.7839,0.527456604 76.7839,0.527456604 C76.4395346,0.175879245 75.9803808,0 75.4639231,0 C26.0537269,0 26.0537269,0 26.0537269,0 C25.0781154,0 24.2172923,0.820528302 24.2172923,1.87544151 C24.2172923,13.9488 24.2172923,13.9488 24.2172923,13.9488 C17.6177692,14.8865208 11.8790692,18.8131019 8.03410769,22.2124075 C5.50912308,24.3809208 3.61538462,26.549434 2.41019615,27.9561057 C0,30.8864604 0,31.3552302 0,31.8241811 C0,32.3516377 0,32.7619019 2.41019615,35.6922566 C3.61538462,37.0989283 5.56660769,39.2674415 8.03410769,41.4944604 C12.3955269,45.362717 19.2821115,49.992634 27.0866423,49.992634 C34.8913538,49.992634 41.7777577,45.362717 46.1391769,41.4944604 C48.6641615,39.3259472 50.5580808,37.157434 51.7630885,35.7509434 C54.1734654,32.8205887 54.1734654,32.3516377 54.1734654,31.8241811 C54.1734654,31.3552302 54.1734654,30.944966 51.7630885,28.0146113 C50.5580808,26.6081208 48.6068577,24.4396075 46.1391769,22.2124075 C41.8925462,18.5202113 35.3505077,14.0659925 27.8901615,13.7729208 C27.8901615,3.75088302 27.8901615,3.75088302 27.8901615,3.75088302 C73.6276692,3.75088302 73.6276692,3.75088302 73.6276692,3.75088302 C73.6276692,18.9304755 73.6276692,18.9304755 73.6276692,18.9304755 C73.6276692,19.9853887 74.4883115,20.805917 75.4639231,20.805917 C90.3273115,20.805917 90.3273115,20.805917 90.3273115,20.805917 C90.3273115,75.2527698 90.3273115,75.2527698 90.3273115,75.2527698 C87.3431731,75.2527698 87.3431731,75.2527698 87.3431731,75.2527698 C87.3431731,51.0475472 87.3431731,51.0475472 87.3431731,51.0475472 C87.3431731,50.0513208 86.5396538,49.1721057 85.5067385,49.1721057 C84.4738231,49.1721057 83.6703038,50.0513208 83.6703038,51.0475472 C83.6703038,75.2527698 83.6703038,75.2527698 83.6703038,75.2527698 C78.1611808,75.2527698 78.1611808,75.2527698 78.1611808,75.2527698 C78.1611808,47.0622792 78.1611808,47.0622792 78.1611808,47.0622792 C78.1611808,46.9450868 78.1611808,46.7692075 78.1036962,46.6520151 C83.6703038,40.9670038 83.6703038,40.9670038 83.6703038,40.9670038 C83.6703038,43.2527094 83.6703038,43.2527094 83.6703038,43.2527094 C83.6703038,44.249117 84.4738231,45.1281509 85.5067385,45.1281509 C86.5396538,45.1281509 87.3431731,44.249117 87.3431731,43.2527094 C87.3431731,36.4542792 87.3431731,36.4542792 87.3431731,36.4542792 C87.3431731,35.3991849 86.5396538,34.5788377 85.5067385,34.5788377 C78.9072154,34.5788377 78.9072154,34.5788377 78.9072154,34.5788377 C77.8743,34.5788377 77.0707808,35.3991849 77.0707808,36.4542792 C77.0707808,37.5091925 77.8743,38.3297208 78.9072154,38.3297208 C81.0878346,38.3297208 81.0878346,38.3297208 81.0878346,38.3297208 C66.7985692,52.9229887 66.7985692,52.9229887 66.7985692,52.9229887 C60.6582,46.6520151 60.6582,46.6520151 60.6582,46.6520151 C60.3138346,46.3004377 59.7973769,46.1245585 59.3382231,46.1245585 C58.8790692,46.1245585 58.3626115,46.3004377 58.0182462,46.6520151 C44.2454385,60.7180075 44.2454385,60.7180075 44.2454385,60.7180075 C43.5567077,61.4798491 43.5567077,62.6519547 44.2454385,63.3552906 C44.6471077,63.7655547 45.1062615,63.941434 45.5652346,63.941434 C46.0243885,63.941434 46.4835423,63.7655547 46.8852115,63.3552906 C46.9426962,75.2527698 46.9426962,75.2527698 46.9426962,75.2527698 C45.6227192,75.2527698 45.6227192,75.2527698 45.6227192,75.2527698 C44.5898038,75.2527698 43.7862846,76.0732981 43.7862846,77.1282113 C43.7862846,78.1246189 44.5898038,79.0036528 45.6227192,79.0036528 C90.3273115,79.0036528 90.3273115,79.0036528 90.3273115,79.0036528 C90.3273115,92.249117 90.3273115,92.249117 90.3273115,92.249117 C27.8901615,92.249117 27.8901615,92.249117 27.8901615,92.249117 C27.8901615,86.6227925 27.8901615,86.6227925 27.8901615,86.6227925 C27.8901615,85.6263849 27.0866423,84.7471698 26.0537269,84.7471698 C25.0781154,84.7471698 24.2172923,85.6263849 24.2172923,86.6227925 C24.2172923,94.1245585 24.2172923,94.1245585 24.2172923,94.1245585 C24.2172923,95.1794717 25.0781154,96 26.0537269,96 C92.1635654,96 92.1635654,96 92.1635654,96 C93.1966615,96 94,95.1794717 94,94.1245585 C94,18.9304755 94,18.9304755 94,18.9304755 C94,18.4615245 93.8279077,17.9927547 93.4835423,17.6409962 Z M43.2698269,24.6739925 C46.5983308,27.4871547 49.0085269,30.4175094 50.0989269,31.8828679 C49.0085269,33.2893585 46.5983308,36.2197132 43.2125231,39.0915623 C39.4248654,42.3736755 33.5713769,46.2417509 27.0866423,46.2417509 C20.6019077,46.2417509 14.6911154,42.3149887 10.9034577,39.0330566 C7.57513462,36.2197132 5.16475769,33.2893585 4.07453846,31.8241811 C5.16475769,30.4175094 7.57513462,27.4871547 10.9609423,24.6153057 C14.7484192,21.3333736 20.6019077,17.465117 27.0866423,17.465117 C33.5713769,17.465117 39.48235,21.3918792 43.2698269,24.6739925 Z M77.3003577,17.055034 C77.3003577,6.38834717 77.3003577,6.38834717 77.3003577,6.38834717 C87.7448423,17.055034 87.7448423,17.055034 87.7448423,17.055034 L77.3003577,17.055034 Z M56.1245077,75.2527698 C50.6153846,75.2527698 50.6153846,75.2527698 50.6153846,75.2527698 C50.6153846,59.5457208 50.6153846,59.5457208 50.6153846,59.5457208 C56.1245077,53.9193962 56.1245077,53.9193962 56.1245077,53.9193962 L56.1245077,75.2527698 Z M65.3065,75.2527698 C59.7973769,75.2527698 59.7973769,75.2527698 59.7973769,75.2527698 C59.7973769,51.106234 59.7973769,51.106234 59.7973769,51.106234 C65.3065,56.7325585 65.3065,56.7325585 65.3065,56.7325585 L65.3065,75.2527698 Z M74.4883115,75.2527698 C68.9791885,75.2527698 68.9791885,75.2527698 68.9791885,75.2527698 C68.9791885,55.970717 68.9791885,55.970717 68.9791885,55.970717 C74.4883115,50.3443925 74.4883115,50.3443925 74.4883115,50.3443925 L74.4883115,75.2527698 Z" id="Fill-44"></path>
                <path d="M27,22 C20.95605,22 16,26.9424833 16,32.9699333 C16,39.0575167 20.95605,44 27,44 C33.10445,44 38,39.0575167 38,32.9699333 C38,26.9424833 33.10445,22 27,22 Z M27,40.1424833 C23.07135,40.1424833 19.86815,36.9479 19.86815,32.9699333 C19.86815,29.0521 23.07135,25.8575167 27,25.8575167 C30.92865,25.8575167 34.13185,29.0521 34.13185,32.9699333 C34.13185,36.9479 30.92865,40.1424833 27,40.1424833 Z" id="Fill-45"></path>
                <path d="M28.4376,31.625 C28.0626,31.25 27.5,31 27,31 C26.5,31 25.9376,31.25 25.5626,31.625 C25.1876,32 25,32.5 25,33 C25,33.5626 25.1876,34.0626 25.5626,34.4376 C25.9376,34.8126 26.5,35 27,35 C27.5,35 28.0626,34.8126 28.4376,34.4376 C28.8126,34.0626 29,33.5626 29,33 C29,32.5 28.8126,32 28.4376,31.625 Z" id="Fill-46"></path>
                <path d="M23.1132143,67 C1.88678571,67 1.88678571,67 1.88678571,67 C0.884464286,67 0,67.875 0,69 C0,70.0626 0.884464286,71 1.88678571,71 C23.1132143,71 23.1132143,71 23.1132143,71 C24.1744643,71 25,70.0626 25,69 C25,67.875 24.1744643,67 23.1132143,67 Z" id="Fill-47"></path>
                <path d="M33.91308,67 C29.08692,67 29.08692,67 29.08692,67 C27.9783,67 27,67.875 27,69 C27,70.0626 27.9783,71 29.08692,71 C33.91308,71 33.91308,71 33.91308,71 C35.08704,71 36,70.0626 36,69 C36,67.875 35.08704,67 33.91308,67 Z" id="Fill-48"></path>
                <path d="M29.0510118,60 C1.94898824,60 1.94898824,60 1.94898824,60 C0.913588235,60 0,60.875 0,62 C0,63.125 0.913588235,64 1.94898824,64 C29.0510118,64 29.0510118,64 29.0510118,64 C30.0864118,64 31,63.125 31,62 C31,60.875 30.0864118,60 29.0510118,60 Z" id="Fill-49"></path>
                <path d="M34.4376,60.5626 C34.0626,60.1876 33.5626,60 33,60 C32.5,60 31.9376,60.1876 31.5626,60.5626 C31.25,60.9376 31,61.5 31,62 C31,62.5 31.25,63.0626 31.5626,63.4376 C31.9376,63.8126 32.5,64 33,64 C33.5626,64 34.0626,63.8126 34.4376,63.4376 C34.8126,63.0626 35,62.5 35,62 C35,61.5 34.8126,60.9376 34.4376,60.5626 Z" id="Fill-50"></path>
                <path d="M16.21116,76 C1.78884,76 1.78884,76 1.78884,76 C0.83844,76 0,76.875 0,78 C0,79.0626 0.83844,80 1.78884,80 C16.21116,80 16.21116,80 16.21116,80 C17.16156,80 18,79.0626 18,78 C18,76.875 17.16156,76 16.21116,76 Z" id="Fill-51"></path>
                <path d="M25.4376,76.5626 C25.0626,76.1876 24.5626,76 24,76 C23.5,76 23,76.1876 22.625,76.5626 C22.25,76.9376 22,77.4376 22,78 C22,78.5 22.25,79 22.625,79.375 C23,79.75 23.5,80 24,80 C24.5626,80 25.0626,79.75 25.4376,79.375 C25.8126,79 26,78.5 26,78 C26,77.4376 25.8126,76.9376 25.4376,76.5626 Z" id="Fill-52"></path>
                <path d="M30.4376,76.5626 C30.0626,76.1876 29.5626,76 29,76 C28.5,76 28,76.1876 27.625,76.5626 C27.25,76.9376 27,77.4376 27,78 C27,78.5 27.25,79 27.625,79.375 C28,79.75 28.5,80 29,80 C29.5626,80 30.0626,79.75 30.4376,79.375 C30.8126,79 31,78.5 31,78 C31,77.4376 30.8126,76.9376 30.4376,76.5626 Z" id="Fill-53"></path>
                <path d="M37.4376,76.5626 C37.0626,76.1876 36.5626,76 36,76 C35.5,76 35,76.1876 34.625,76.5626 C34.25,76.9376 34,77.4376 34,78 C34,78.5 34.25,79 34.625,79.375 C35,79.75 35.5,80 36,80 C36.5626,80 37.0626,79.75 37.4376,79.375 C37.8126,79 38,78.5 38,78 C38,77.4376 37.8126,76.9376 37.4376,76.5626 Z" id="Fill-54"></path>
                <path d="M67.05402,11 C52.94598,11 52.94598,11 52.94598,11 C51.8514,11 51,11.9376 51,13 C51,14.125 51.8514,15 52.94598,15 C67.05402,15 67.05402,15 67.05402,15 C68.1486,15 69,14.125 69,13 C69,11.9376 68.1486,11 67.05402,11 Z" id="Fill-55"></path>
                <path d="M63.077275,18 C52.922725,18 52.922725,18 52.922725,18 C51.841225,18 51,18.9376 51,20 C51,21.125 51.841225,22 52.922725,22 C63.077275,22 63.077275,22 63.077275,22 C64.158775,22 65,21.125 65,20 C65,18.9376 64.158775,18 63.077275,18 Z" id="Fill-56"></path>
            </g>
        </g>
    </g>
</svg>

<svg width="94" height="96" viewBox="0 0 94 96" xmlns="http://www.w3.org/2000/svg"><title>ResultsIcon Copy</title><desc>Created with Sketch.</desc><g fill="#2A1B41"><path d="M93.484 17.641l-16.7-17.114c-.344-.352-.804-.527-1.32-.527h-49.41c-.976 0-1.836.821-1.836 1.875v12.073c-6.6.938-12.338 4.864-16.183 8.264-2.525 2.169-4.419 4.337-5.624 5.744-2.41 2.93-2.41 3.399-2.41 3.868 0 .527 0 .938 2.41 3.868 1.205 1.407 3.156 3.575 5.624 5.802 4.361 3.868 11.248 8.498 19.053 8.498 7.805 0 14.691-4.63 19.053-8.498 2.525-2.169 4.419-4.337 5.624-5.744 2.41-2.93 2.41-3.399 2.41-3.927 0-.469 0-.879-2.41-3.81-1.205-1.406-3.156-3.575-5.624-5.802-4.247-3.692-10.789-8.146-18.249-8.439v-10.022h45.738v15.18c0 1.055.861 1.875 1.836 1.875h14.863v54.447h-2.984v-24.205c0-.996-.804-1.875-1.836-1.875-1.033 0-1.836.879-1.836 1.875v24.205h-5.509v-28.19c0-.117 0-.293-.057-.41l5.567-5.685v2.286c0 .996.804 1.875 1.836 1.875 1.033 0 1.836-.879 1.836-1.875v-6.798c0-1.055-.804-1.875-1.836-1.875h-6.6c-1.033 0-1.836.82-1.836 1.875 0 1.055.804 1.875 1.836 1.875h2.181l-14.289 14.593-6.14-6.271c-.344-.352-.861-.527-1.32-.527-.459 0-.976.176-1.32.527l-13.773 14.066c-.689.762-.689 1.934 0 2.637.402.41.861.586 1.32.586.459 0 .918-.176 1.32-.586l.057 11.897h-1.32c-1.033 0-1.836.821-1.836 1.875 0 .996.804 1.875 1.836 1.875h44.705v13.245h-62.437v-5.626c0-.996-.804-1.876-1.836-1.876-.976 0-1.836.879-1.836 1.876v7.502c0 1.055.861 1.875 1.836 1.875h66.11c1.033 0 1.836-.821 1.836-1.875v-75.194c0-.469-.172-.938-.516-1.289zm-50.214 7.033c3.329 2.813 5.739 5.744 6.829 7.209-1.09 1.406-3.501 4.337-6.886 7.209-3.788 3.282-9.641 7.15-16.126 7.15-6.485 0-12.396-3.927-16.183-7.209-3.328-2.813-5.739-5.744-6.829-7.209 1.09-1.407 3.501-4.337 6.886-7.209 3.787-3.282 9.641-7.15 16.126-7.15 6.485 0 12.396 3.927 16.183 7.209zm34.031-7.619v-10.667l10.444 10.667h-10.444zm-21.176 58.198h-5.509v-15.707l5.509-5.626v21.333zm9.182 0h-5.509v-24.147l5.509 5.626v18.52zm9.182 0h-5.509v-19.282l5.509-5.626v24.908z"/><path d="M27 22c-6.044 0-11 4.942-11 10.97 0 6.088 4.956 11.03 11 11.03 6.104 0 11-4.942 11-11.03 0-6.027-4.896-10.97-11-10.97zm0 18.142c-3.929 0-7.132-3.195-7.132-7.173 0-3.918 3.203-7.112 7.132-7.112s7.132 3.195 7.132 7.112c0 3.978-3.203 7.173-7.132 7.173z"/><path d="M28.438 31.625c-.375-.375-.938-.625-1.438-.625s-1.062.25-1.437.625-.563.875-.563 1.375c0 .563.188 1.063.563 1.438.375.375.937.562 1.437.562s1.063-.187 1.438-.562c.375-.375.562-.875.562-1.438 0-.5-.187-1-.562-1.375z"/><path d="M23.113 67h-21.226c-1.002 0-1.887.875-1.887 2 0 1.063.884 2 1.887 2h21.226c1.061 0 1.887-.937 1.887-2 0-1.125-.826-2-1.887-2z"/><path d="M33.913 67h-4.826c-1.109 0-2.087.875-2.087 2 0 1.063.978 2 2.087 2h4.826c1.174 0 2.087-.937 2.087-2 0-1.125-.913-2-2.087-2z"/><path d="M29.051 60h-27.102c-1.035 0-1.949.875-1.949 2s.914 2 1.949 2h27.102c1.035 0 1.949-.875 1.949-2s-.914-2-1.949-2z"/><path d="M34.438 60.563c-.375-.375-.875-.563-1.438-.563-.5 0-1.062.188-1.437.563-.313.375-.563.937-.563 1.437s.25 1.063.563 1.438c.375.375.937.562 1.437.562.563 0 1.063-.187 1.438-.562.375-.375.562-.938.562-1.438s-.187-1.062-.562-1.437z"/><path d="M16.211 76h-14.422c-.95 0-1.789.875-1.789 2 0 1.063.838 2 1.789 2h14.422c.95 0 1.789-.937 1.789-2 0-1.125-.838-2-1.789-2z"/><path d="M25.438 76.563c-.375-.375-.875-.563-1.438-.563-.5 0-1 .188-1.375.563-.375.375-.625.875-.625 1.437 0 .5.25 1 .625 1.375s.875.625 1.375.625c.563 0 1.063-.25 1.438-.625s.562-.875.562-1.375c0-.562-.187-1.062-.562-1.437z"/><path d="M30.438 76.563c-.375-.375-.875-.563-1.438-.563-.5 0-1 .188-1.375.563-.375.375-.625.875-.625 1.437 0 .5.25 1 .625 1.375s.875.625 1.375.625c.563 0 1.063-.25 1.438-.625s.562-.875.562-1.375c0-.562-.187-1.062-.562-1.437z"/><path d="M37.438 76.563c-.375-.375-.875-.563-1.438-.563-.5 0-1 .188-1.375.563-.375.375-.625.875-.625 1.437 0 .5.25 1 .625 1.375s.875.625 1.375.625c.563 0 1.063-.25 1.438-.625s.562-.875.562-1.375c0-.562-.187-1.062-.562-1.437z"/><path d="M67.054 11h-14.108c-1.095 0-1.946.938-1.946 2 0 1.125.851 2 1.946 2h14.108c1.095 0 1.946-.875 1.946-2 0-1.062-.851-2-1.946-2z"/><path d="M63.077 18h-10.155c-1.081 0-1.923.938-1.923 2 0 1.125.841 2 1.923 2h10.155c1.082 0 1.923-.875 1.923-2 0-1.062-.841-2-1.923-2z"/></g></svg>
